X:1
T:Mush, Mush, Mush Too-Ri-Li-Ady
M:3/4
L:1/4
K:G
 z2 D/2D/2| G G G| G A3/2 G/2| F D2-| D2 c/2c/2| B B B| G A B| c3-|\
 c2 B/2c/2| d d d| c B A| G E2| c2 c| B c B| A3/2 E/2 F| G3-| G2 D/2D/2|\
 G G G| G A3/2 G/2| F D2-| D2 c| B B B| G A B| c3-| c2 B/2c/2| d d d|\
 c B A| G E2| c2- c| B c B| A3/2 E/2 F| G G G| G A3/2 G/2| F D2-| D2 c|\
 B B B| G A B| c3-| c2 B/2c/2| d d d| c B A| G E2| c3| B c B| A E F|\
 G3-| G2 z|
